X:1
T:Title
%%score ( 1 2 ) ( 3 4 )
L:1/8
Q:1/4=90
M:4/4
K:G
V:1 treble nm="Midi_20"
V:2 treble 
V:3 bass nm="Midi_20"
V:4 bass 
V:1
"^Fareham (S.M.)""^John Goss\n(1800-80)""^This is the day of light" D2 | G2 B2 d2 e2 | d6 B2 | %3
 A2 G2 A2 c2 | B6 || B2 | A2 G2 d2 B2 | A2 G2 F2 D2 | G2 c2 B2 A2 | G6 |] %10
V:2
 D2 | D2 D2 G2 G2 | G6 G2 | F2 G2 G2 F2 | G6 || D2 | D2 ^C2 D2 D2 | E2 ^C2 D2 D2 | D2 E2 D2 C2 | %9
 B,6 |] %10
V:3
"^1. This is the day of light;\nLet there be light today;\nO Dayspring, rise upon our night,\nAnd chase its gloom away.\n\n2. This is the day of rest:\nOur failing strength renew;\nOn weary brain and troubled breast\nShed Thou Thy freshening dew.\n\n3. This is the day of peace:\nThy peace our spirits fill;\nBid Thou the blasts of discord cease,\nThe waves of strife be still." B,2 | %1
 B,2 B,2 B,2 C2 | B,6 D2 | D2 B,2 E2 D2 | D6 || %5
"^4. This is the day of prayer:\nLet earth to heaven draw near;\nLift up our hearts to seek Thee there,\nCome down to meet us here.\n\n5. This is the first of days:\nSend forth Thy quickening breath,\nAnd wake dead souls  to love and praise, \nO Vanquisher of death!" G,2 | %6
 F,2 G,2 A,2 B,2 | E,2 A,2 A,2 F,2 | G,2 G,2 G,2 F,2 | G,6 |] %10
V:4
 G,2 | G,2 G,2 G,2 C,2 | G,6 G,2 | D,2 E,2 C,2 D,2 | G,,6 || G,2 | D,2 E,2 F,2 G,2 | %7
 ^C,2 A,,2 D,2 =C,2 | B,,2 A,,2 D,2 D,2 | G,,6 |] %10

